X: 1958
T: Yalnız Kalan Ruhumun
C: Teoman Alpay
O: Turkey
F: http://compmusic.upf.edu/node/140
N: muhayyerkurdi--sarki--semai--yalniz_kalan--teoman_alpay
N: makam= muhayyerkurdi
N: form= sarki
N: usul= semai = 3/4
M: 3/4
L: 1/16
K: C _B   
Q: 1/4=174
%%MIDI tuningsystem comma53
a4 b4 a4  | g4 f4 g4  | a12  | d2e2 f2g2 a4  | \
w:  ARANAĞME  |   |   |   | 
e4 f4 g4  | b4 g4 f4  | e12  | c4 B4 A4  | 
w:   |   |   |   | 
a4 b4 a4  | g4 f4 g4  | a12  | d2e2 f2g2 a4  | \
w:  ARANAĞME  |   |   |   | 
e4 f4 g4  | b4 g4 f4  | e12  | e2A2 B2c2 d2e2  | 
w:   |   |   |   | 
f4 g4 f4  | e4 d4 c4  | B12  | e12  | f4 e4 d4  | \
w:   |   |   |   |   | 
c4 B4 c4  | A12  | A2B2 c2d2 e4  | f4 g4 f4  | 
w:   |   |   |   | 
e4 d4 c4  | B12  | e12  | f4 e4 d4  | c4 B4 c4  | A12  | \
w:   |   |   |   |   |   | 
d2e2 f2g2 a4  | a4 b6a2  | g4 f4 g4  | 
w:   |  Yal nız  ka  |  lan  ru hu  | 
a12  | a2f2 d2f2 a2e2  | e4 f4 g4  | b4 g4 f4  | e12  | \
w:  mun    |  SAZ  |  A cı sı   |  çok  de rin  |  dir    | 
c4 B4 A4  | a4 b6a2  | g4 f4 g4  | 
w:  SAZ  |  Yal nız  ka  |  lan  ru hu  | 
a12  | a2f2 d2f2 a2e2  | e4 f4 g4  | b4 g4 f4  | e12  | \
w:  mun    |  SAZ  |  A cı sı   |  çok  de rin  |  dir    | 
A2B2 c2d2 e4  | e4 f4 d4  | 
w:  SAZ  |  Yıl lar  geç  | 
e4 f4 g4  | b12  | b4 baga b4  | c'4 d'6c'2  | \
w:  se  de  i  |  nan    |  SAZ  |  Kal bim  yi  | 
b4 a4 g4  | a12  | d2e2 f2g2 a4  | 
w:  ne  se nin  |  dir    |  SAZ  | 
a2a2 a8  | b4 g4 f4  | e12  | e4 f4 ^f4  | \
w:  A la maz   |  bin  sev gi  |  li    |  SAZ  | 
g4 g6g2  | a4 f4 e4  | d12  | c4 d4 e4  | f6g2 f4  | 
w:  Kal bim de  |  ki  şu  ye  |  ri    |  SAZ  |  San ki  i  | 
e4 d4 c4  | B12  | e12  | f4 e4 d4  | c4 B4 c2A2  | A12  | \
w:  çim de  a  |  çan    |   |  Bu  sar ma  |  şık  gül le  |  ri    | 
A2Bc defg a4  | 
w:  SAZ  | 
a2a2 a8  | b4 g4 f4  | e12  | e4 f4 ^f4  | \
w:  A la maz   |  bin  sev gi  |  li    |  SAZ  | 
g4 g6g2  | a4 f4 e4  | d12  | c4 d4 e4  | f6g2 f4  | 
w:  Kal bim de  |  ki  şu  ye  |  ri    |  SAZ  |  San ki  i  | 
e4 d4 c4  | B12  | e12  | f4 e4 d4  | c4 B4 c2A2  | A12  | \
w:  çim de  a  |  çan    |   |  Bu  sar ma  |  şık  gül le  |  ri    | 
A2Bc defg a4  | 
w:  SAZ  | 
a4 b4 a4  | g4 f4 g4  | a12  | d2e2 f2g2 a4  | \
w:  ARANAĞME  |   |   |   | 
e4 f4 g4  | b4 g4 f4  | e12  | c4 B4 A4  | 
w:   |   |   |   | 
a4 b4 a4  | g4 f4 g4  | a12  | d2e2 f2g2 a4  | \
w:  ARANAĞME  |   |   |   | 
e4 f4 g4  | b4 g4 f4  | e12  | e2A2 B2c2 d2e2  | 
w:   |   |   |   | 
f4 g4 f4  | e4 d4 c4  | B12  | e12  | f4 e4 d4  | \
w:   |   |   |   |   | 
c4 B4 c4  | A12  | A2B2 c2d2 e4  | f4 g4 f4  | 
w:   |   |   |   | 
e4 d4 c4  | B12  | e12  | f4 e4 d4  | c4 B4 c4  | A12  | \
w:   |   |   |   |   |   | 
d2e2 f2g2 a4  | a4 b6a2  | g4 f4 g4  | 
w:   |  Yal nız  ka  |  lan  ru hu  | 
a12  | a2f2 d2f2 a2e2  | e4 f4 g4  | b4 g4 f4  | e12  | \
w:  mun    |  SAZ  |  A cı sı   |  çok  de rin  |  dir    | 
c4 B4 A4  | a4 b6a2  | g4 f4 g4  | 
w:  SAZ  |  Yal nız  ka  |  lan  ru hu  | 
a12  | a2f2 d2f2 a2e2  | e4 f4 g4  | b4 g4 f4  | e12  | \
w:  mun    |  SAZ  |  A cı sı   |  çok  de rin  |  dir    | 
A2B2 c2d2 e4  | e4 f4 d4  | 
w:  SAZ  |  Yıl lar  geç  | 
e4 f4 g4  | b12  | b4 baga b4  | c'4 d'6c'2  | \
w:  se  de  i  |  nan    |  SAZ  |  Kal bim  yi  | 
b4 a4 g4  | a12  | d2e2 f2g2 a4  | 
w:  ne  se nin  |  dir    |  SAZ  | 
a2a2 a8  | b4 g4 f4  | e12  | e4 f4 ^f4  | \
w:  A la maz   |  bin  sev gi  |  li    |  SAZ  | 
g4 g6g2  | a4 f4 e4  | d12  | c4 d4 e4  | f6g2 f4  | 
w:  Kal bim de  |  ki  şu  ye  |  ri    |  SAZ  |  San ki  i  | 
e4 d4 c4  | B12  | e12  | f4 e4 d4  | c4 B4 c2A2  | A12  | |


